packages/vibrant-icons/assets/icons/AlignVerticalCenter/Thin.svg

<svg width="24" height="24" viewBox="0 0 24 24" fill="none" xmlns="http://www.w3.org/2000/svg"><path d="M5.7502 20.8499c-.469 0-.85-.381-.85-.85v-7.4h-3.7v-1.2h3.7v-7.4c0-.469.381-.85.85-.85h4c.469 0 .85.381.85.85v7.4h2.8v-4.15c0-.469.381-.85.85-.85h4c.469 0 .85.381.85.85v4.15h3.8v1.2h-3.8v4.15c0 .469-.381.85-.85.85h-4c-.469 0-.85-.381-.85-.85v-4.15h-2.8v7.4c0 .469-.381.85-.85.85h-4Zm.85-1.7h2.3v-14.3h-2.3v14.3Zm8.5-3.25h2.3v-7.8h-2.3v7.8Z" fill="#000"/></svg>

<svg xmlns="http://www.w3.org/2000/svg" width="24" height="24" fill="none"><path fill="#000" d="M5.75 20.85A.85.85 0 0 1 4.9 20v-7.4H1.2v-1.2h3.7V4a.85.85 0 0 1 .85-.85h4a.85.85 0 0 1 .85.85v7.4h2.8V7.25a.85.85 0 0 1 .85-.85h4a.85.85 0 0 1 .85.85v4.15h3.8v1.2h-3.8v4.15a.85.85 0 0 1-.85.85h-4a.85.85 0 0 1-.85-.85V12.6h-2.8V20a.85.85 0 0 1-.85.85zm.85-1.7h2.3V4.85H6.6zm8.5-3.25h2.3V8.1h-2.3z"/></svg>
